packages/kaspersky-hexa-ui-icons/src/iconsSVGs/48/BookHelp.svg

<svg width="48" height="48" viewBox="0 0 48 48" fill="none" xmlns="http://www.w3.org/2000/svg">
<path fill-rule="evenodd" clip-rule="evenodd" d="M28 4H44V8H48V44H0V8H4V4H20C21.5738 4 23.0557 4.74097 24 6C24.9443 4.74097 26.4262 4 28 4ZM20 36H6V38H22.82C22.3973 36.8043 21.2683 36.0036 20 36ZM36 6H38V9.45L37 8.82L36 9.45V6ZM28 6C26.3431 6 25 7.34315 25 9V35C25.8655 34.3509 26.9181 34 28 34H42V6H40V13.08L37 11.18L34 13.08V6H28ZM42 36V38H25.18C25.6027 36.8043 26.7317 36.0036 28 36H42ZM20 6H6V34H20C21.0819 34 22.1345 34.3509 23 35V9C23 7.34315 21.6569 6 20 6ZM46 42H2V10H4V40H44V10H46V42ZM12 13H17V11H12V13ZM21 18H8V16H21V18ZM8 22H21V20H8V22ZM21 26H8V24H21V26ZM8 30H21V28H8V30ZM40 18H27V16H40V18ZM27 22H40V20H27V22ZM40 26H27V24H40V26ZM27 30H34V28H27V30Z"  fill="currentColor"/>
</svg>

<svg xmlns="http://www.w3.org/2000/svg" width="48" height="48" fill="none" viewBox="0 0 48 48"><path fill="currentColor" fill-rule="evenodd" d="M28 4h16v4h4v36H0V8h4V4h16a5 5 0 0 1 4 2 5 5 0 0 1 4-2m-8 32H6v2h16.82A3 3 0 0 0 20 36M36 6h2v3.45l-1-.63-1 .63zm-8 0c-1.6569 0-3 1.3431-3 3v26a5 5 0 0 1 3-1h14V6h-2v7.08l-3-1.9-3 1.9V6zm14 30v2H25.18A3 3 0 0 1 28 36zM20 6H6v28h14a5 5 0 0 1 3 1V9c0-1.6569-1.3431-3-3-3m26 36H2V10h2v30h40V10h2zM12 13h5v-2h-5zm9 5H8v-2h13zM8 22h13v-2H8zm13 4H8v-2h13zM8 30h13v-2H8zm32-12H27v-2h13zm-13 4h13v-2H27zm13 4H27v-2h13zm-13 4h7v-2h-7z" clip-rule="evenodd"/></svg>
